images/USDD.svg

<svg height="250" viewBox="0 0 250 250" width="250" xmlns="http://www.w3.org/2000/svg"><path d="m116.000625 60c0 30.928125-25.0725 56.000625-56.000625 56.000625s-56.000625-25.0725-56.000625-56.000625 25.0725-56.000625 56.000625-56.000625 56.000625 25.0725 56.000625 56.000625zm0 0" fill="#216c58" stroke="#216c58" stroke-width="2" transform="scale(2.083333)"/><path d="m233.332031 125c0 59.832031-48.5 108.332031-108.332031 108.332031s-108.332031-48.5-108.332031-108.332031 48.5-108.332031 108.332031-108.332031 108.332031 48.5 108.332031 108.332031zm0 0" fill="#216c58"/><path d="m110.417969 177.082031h12.5v12.5h-12.5zm0 0" fill="#216c58"/><path d="m131.25 177.082031h12.5v12.5h-12.5zm0 0" fill="#216c58"/><g fill="#fff"><path d="m89.582031 47.917969h79.167969c2.300781 0 4.167969 1.863281 4.167969 4.164062v2.085938c0 2.300781-1.867188 4.164062-4.167969 4.164062h-79.167969c-2.300781 0-4.164062-1.863281-4.164062-4.164062v-2.085938c0-2.300781 1.863281-4.164062 4.164062-4.164062zm0 0"/><path d="m125 62.5v141.667969c0 2.300781-1.867188 4.164062-4.167969 4.164062h-2.082031c-2.300781 0-4.167969-1.863281-4.167969-4.164062v-141.667969zm0 0"/><path d="m141.667969 62.5v141.667969c0 2.300781-1.867188 4.164062-4.167969 4.164062h-2.082031c-2.300781 0-4.167969-1.863281-4.167969-4.164062v-141.667969zm0 0"/><path d="m55.7325 46.929375h.001875l.009375-.00375c1.389375-.508125 3.144375-.78 5.29125-.78 3.159375 0 5.536875.6075 7.228125 1.715625 1.220625.800625 2.023125 1.805625 2.45625 3.024375.433125 1.2225 1.5525 2.4075 3.12375 2.4075h9.238125c1.63875 0 3.12-1.374375 2.870625-3.16875-.38625-2.76375-1.430625-5.2575-3.125625-7.464375-2.120625-2.761875-5.06625-4.888125-8.79-6.399375-3.7125-1.516875-8.023125-2.26125-12.9075-2.26125-4.80375 0-9.129375.74625-12.958125 2.2575-3.825 1.5075-6.883125 3.62625-9.129375 6.37875l-.001875.00375c-2.25 2.784375-3.36 6.045-3.339375 9.73875-.020625 4.52625 1.666875 8.195625 5.068125 10.90125 3.305625 2.626875 7.753125 4.516875 13.284375 5.715h.001875l7.014375 1.569375.009375.001875c2.3175.496875 4.24875 1.044375 5.803125 1.636875l.00375.001875c1.554375.585 2.64375 1.265625 3.343125 1.99875l.009375.0075c.6675.6825 1.005 1.509375 1.005 2.551875 0 1.130625-.376875 2.120625-1.164375 3.0075-.804375.9075-1.974375 1.6575-3.579375 2.214375l-.001875.001875c-1.569375.55125-3.455625.84-5.68125.84-2.259375 0-4.25625-.305625-6-.898125-1.70625-.605625-3.028125-1.4775-4.00875-2.595-.624375-.73875-1.074375-1.60125-1.344375-2.604375-.36-1.329375-1.51875-2.563125-3.125625-2.563125h-9.285c-1.659375 0-3.10875 1.3875-2.904375 3.159375.39375 3.399375 1.528125 6.36 3.425625 8.84625l.005625.005625c2.293125 2.953125 5.46 5.15625 9.44625 6.63l.001875.001875c3.9975 1.47 8.653125 2.191875 13.94625 2.191875 5.330625 0 9.9375-.7125 13.794375-2.1675h.001875c3.868125-1.47 6.890625-3.556875 9-6.294375 2.1375-2.765625 3.208125-6.028125 3.230625-9.7425v-.015c-.0225-2.52375-.54375-4.80375-1.591875-6.811875-1.0125-1.98375-2.439375-3.699375-4.265625-5.146875-1.8075-1.4325-3.93-2.626875-6.358125-3.5925-2.41125-.958125-5.05125-1.72125-7.9125-2.29125l-5.78625-1.231875v-.001875l-.013125-.001875c-1.370625-.27375-2.655-.6-3.853125-.97875-1.18125-.39375-2.205-.841875-3.07875-1.3425-.838125-.49875-1.468125-1.06875-1.918125-1.69875-.38625-.568125-.579375-1.245-.545625-2.0775v-.04125c0-.99375.315-1.873125.965625-2.668125.676875-.800625 1.68375-1.468125 3.09-1.966875zm0 0" stroke="#216c58" stroke-width="2" transform="scale(2.083333)"/><path d="m114.582031 89.582031h10.417969v14.585938h-10.417969zm0 0"/><path d="m114.582031 141.667969h10.417969v14.582031h-10.417969zm0 0"/><path d="m114.582031 185.417969h10.417969v14.582031h-10.417969zm0 0"/><path d="m131.25 89.582031h10.417969v14.585938h-10.417969zm0 0"/><path d="m131.25 141.667969h10.417969v14.582031h-10.417969zm0 0"/><path d="m131.25 185.417969h10.417969v14.582031h-10.417969zm0 0"/><path d="m229.839844 131.25c-1.652344 0-3.015625 1.296875-3.164063 2.945312-4.648437 52.070313-48.394531 92.886719-101.675781 92.886719s-97.027344-40.816406-101.675781-92.886719c-.144531-1.648437-1.511719-2.945312-3.167969-2.945312-1.796875 0-3.230469 1.519531-3.074219 3.3125 4.839844 55.351562 51.308594 98.769531 107.917969 98.769531s103.078125-43.417969 107.917969-98.769531c.15625-1.792969-1.277344-3.3125-3.078125-3.3125zm-209.683594-12.5c1.65625 0 3.023438-1.296875 3.167969-2.945312 4.648437-52.070313 48.394531-92.886719 101.675781-92.886719s97.027344 40.816406 101.675781 92.886719c.148438 1.648437 1.511719 2.945312 3.164063 2.945312 1.800781 0 3.234375-1.519531 3.078125-3.3125-4.839844-55.351562-51.308594-98.769531-107.917969-98.769531s-103.078125 43.417969-107.917969 98.769531c-.15625 1.792969 1.277344 3.3125 3.074219 3.3125zm0 0" fill-rule="evenodd"/></g></svg>

<svg xmlns="http://www.w3.org/2000/svg" xmlns:xlink="http://www.w3.org/1999/xlink" width="250px" height="250px" viewBox="0 0 250 250" version="1.1">
<g id="surface1">
<path style="fill-rule:nonzero;fill:rgb(12.941177%,42.352942%,34.509805%);fill-opacity:1;stroke-width:2;stroke-linecap:butt;stroke-linejoin:miter;stroke:rgb(12.941177%,42.352942%,34.509805%);stroke-opacity:1;stroke-miterlimit:4;" d="M 116.000625 60 C 116.000625 90.928125 90.928125 116.000625 60 116.000625 C 29.071875 116.000625 3.999375 90.928125 3.999375 60 C 3.999375 29.071875 29.071875 3.999375 60 3.999375 C 90.928125 3.999375 116.000625 29.071875 116.000625 60 Z M 116.000625 60 " transform="matrix(2.083333,0,0,2.083333,0,0)"/>
<path style=" stroke:none;fill-rule:nonzero;fill:rgb(12.941177%,42.352942%,34.509805%);fill-opacity:1;" d="M 233.332031 125 C 233.332031 184.832031 184.832031 233.332031 125 233.332031 C 65.167969 233.332031 16.667969 184.832031 16.667969 125 C 16.667969 65.167969 65.167969 16.667969 125 16.667969 C 184.832031 16.667969 233.332031 65.167969 233.332031 125 Z M 233.332031 125 "/>
<path style=" stroke:none;fill-rule:nonzero;fill:rgb(12.941177%,42.352942%,34.509805%);fill-opacity:1;" d="M 110.417969 177.082031 L 122.917969 177.082031 L 122.917969 189.582031 L 110.417969 189.582031 Z M 110.417969 177.082031 "/>
<path style=" stroke:none;fill-rule:nonzero;fill:rgb(12.941177%,42.352942%,34.509805%);fill-opacity:1;" d="M 131.25 177.082031 L 143.75 177.082031 L 143.75 189.582031 L 131.25 189.582031 Z M 131.25 177.082031 "/>
<path style=" stroke:none;fill-rule:nonzero;fill:rgb(100%,100%,100%);fill-opacity:1;" d="M 89.582031 47.917969 L 168.75 47.917969 C 171.050781 47.917969 172.917969 49.78125 172.917969 52.082031 L 172.917969 54.167969 C 172.917969 56.46875 171.050781 58.332031 168.75 58.332031 L 89.582031 58.332031 C 87.28125 58.332031 85.417969 56.46875 85.417969 54.167969 L 85.417969 52.082031 C 85.417969 49.78125 87.28125 47.917969 89.582031 47.917969 Z M 89.582031 47.917969 "/>
<path style=" stroke:none;fill-rule:nonzero;fill:rgb(100%,100%,100%);fill-opacity:1;" d="M 125 62.5 L 125 204.167969 C 125 206.46875 123.132812 208.332031 120.832031 208.332031 L 118.75 208.332031 C 116.449219 208.332031 114.582031 206.46875 114.582031 204.167969 L 114.582031 62.5 Z M 125 62.5 "/>
<path style=" stroke:none;fill-rule:nonzero;fill:rgb(100%,100%,100%);fill-opacity:1;" d="M 141.667969 62.5 L 141.667969 204.167969 C 141.667969 206.46875 139.800781 208.332031 137.5 208.332031 L 135.417969 208.332031 C 133.117188 208.332031 131.25 206.46875 131.25 204.167969 L 131.25 62.5 Z M 141.667969 62.5 "/>
<path style="fill-rule:nonzero;fill:rgb(100%,100%,100%);fill-opacity:1;stroke-width:2;stroke-linecap:butt;stroke-linejoin:miter;stroke:rgb(12.941177%,42.352942%,34.509805%);stroke-opacity:1;stroke-miterlimit:4;" d="M 55.7325 46.929375 L 55.734375 46.929375 L 55.74375 46.925625 C 57.133125 46.4175 58.888125 46.145625 61.035 46.145625 C 64.194375 46.145625 66.571875 46.753125 68.263125 47.86125 C 69.48375 48.661875 70.28625 49.666875 70.719375 50.885625 C 71.1525 52.108125 72.271875 53.293125 73.843125 53.293125 L 83.08125 53.293125 C 84.72 53.293125 86.20125 51.91875 85.951875 50.124375 C 85.565625 47.360625 84.52125 44.866875 82.82625 42.66 C 80.705625 39.898125 77.76 37.771875 74.03625 36.260625 C 70.32375 34.74375 66.013125 33.999375 61.12875 33.999375 C 56.325 33.999375 51.999375 34.745625 48.170625 36.256875 C 44.345625 37.764375 41.2875 39.883125 39.04125 42.635625 L 39.039375 42.639375 C 36.789375 45.42375 35.679375 48.684375 35.7 52.378125 C 35.679375 56.904375 37.366875 60.57375 40.768125 63.279375 C 44.07375 65.90625 48.52125 67.79625 54.0525 68.994375 C 54.0525 68.994375 54.054375 68.994375 54.054375 68.994375 L 61.06875 70.56375 L 61.078125 70.565625 C 63.395625 71.0625 65.326875 71.61 66.88125 72.2025 L 66.885 72.204375 C 68.439375 72.789375 69.52875 73.47 70.228125 74.203125 L 70.2375 74.210625 C 70.905 74.893125 71.2425 75.72 71.2425 76.7625 C 71.2425 77.893125 70.865625 78.883125 70.078125 79.77 C 69.27375 80.6775 68.10375 81.4275 66.49875 81.984375 L 66.496875 81.98625 C 64.9275 82.5375 63.04125 82.82625 60.815625 82.82625 C 58.55625 82.82625 56.559375 82.520625 54.815625 81.928125 C 53.109375 81.3225 51.7875 80.450625 50.806875 79.333125 C 50.1825 78.594375 49.7325 77.731875 49.4625 76.72875 C 49.1025 75.399375 47.94375 74.165625 46.336875 74.165625 L 37.051875 74.165625 C 35.3925 74.165625 33.943125 75.553125 34.1475 77.325 C 34.54125 80.724375 35.675625 83.685 37.573125 86.17125 L 37.57875 86.176875 C 39.871875 89.13 43.03875 91.333125 47.025 92.806875 L 47.026875 92.80875 C 51.024375 94.27875 55.68 95.000625 60.973125 95.000625 C 66.30375 95.000625 70.910625 94.288125 74.7675 92.833125 L 74.769375 92.833125 C 78.6375 91.363125 81.66 89.27625 83.769375 86.53875 C 85.906875 83.773125 86.9775 80.510625 87 76.79625 L 87 76.78125 C 86.9775 74.2575 86.45625 71.9775 85.408125 69.969375 C 84.395625 67.985625 82.96875 66.27 81.1425 64.8225 C 79.335 63.39 77.2125 62.195625 74.784375 61.23 C 72.373125 60.271875 69.733125 59.50875 66.871875 58.93875 L 61.085625 57.706875 L 61.085625 57.705 L 61.0725 57.703125 C 59.701875 57.429375 58.4175 57.103125 57.219375 56.724375 C 56.038125 56.330625 55.014375 55.8825 54.140625 55.381875 C 53.3025 54.883125 52.6725 54.313125 52.2225 53.683125 C 51.83625 53.115 51.643125 52.438125 51.676875 51.605625 L 51.676875 51.564375 C 51.676875 50.570625 51.991875 49.69125 52.6425 48.89625 C 53.319375 48.095625 54.32625 47.428125 55.7325 46.929375 Z M 55.7325 46.929375 " transform="matrix(2.083333,0,0,2.083333,0,0)"/>
<path style=" stroke:none;fill-rule:nonzero;fill:rgb(100%,100%,100%);fill-opacity:1;" d="M 114.582031 89.582031 L 125 89.582031 L 125 104.167969 L 114.582031 104.167969 Z M 114.582031 89.582031 "/>
<path style=" stroke:none;fill-rule:nonzero;fill:rgb(100%,100%,100%);fill-opacity:1;" d="M 114.582031 141.667969 L 125 141.667969 L 125 156.25 L 114.582031 156.25 Z M 114.582031 141.667969 "/>
<path style=" stroke:none;fill-rule:nonzero;fill:rgb(100%,100%,100%);fill-opacity:1;" d="M 114.582031 185.417969 L 125 185.417969 L 125 200 L 114.582031 200 Z M 114.582031 185.417969 "/>
<path style=" stroke:none;fill-rule:nonzero;fill:rgb(100%,100%,100%);fill-opacity:1;" d="M 131.25 89.582031 L 141.667969 89.582031 L 141.667969 104.167969 L 131.25 104.167969 Z M 131.25 89.582031 "/>
<path style=" stroke:none;fill-rule:nonzero;fill:rgb(100%,100%,100%);fill-opacity:1;" d="M 131.25 141.667969 L 141.667969 141.667969 L 141.667969 156.25 L 131.25 156.25 Z M 131.25 141.667969 "/>
<path style=" stroke:none;fill-rule:nonzero;fill:rgb(100%,100%,100%);fill-opacity:1;" d="M 131.25 185.417969 L 141.667969 185.417969 L 141.667969 200 L 131.25 200 Z M 131.25 185.417969 "/>
<path style=" stroke:none;fill-rule:evenodd;fill:rgb(100%,100%,100%);fill-opacity:1;" d="M 229.839844 131.25 C 228.1875 131.25 226.824219 132.546875 226.675781 134.195312 C 222.027344 186.265625 178.28125 227.082031 125 227.082031 C 71.71875 227.082031 27.972656 186.265625 23.324219 134.195312 C 23.179688 132.546875 21.8125 131.25 20.15625 131.25 C 18.359375 131.25 16.925781 132.769531 17.082031 134.5625 C 21.921875 189.914062 68.390625 233.332031 125 233.332031 C 181.609375 233.332031 228.078125 189.914062 232.917969 134.5625 C 233.074219 132.769531 231.640625 131.25 229.839844 131.25 Z M 20.15625 118.75 C 21.8125 118.75 23.179688 117.453125 23.324219 115.804688 C 27.972656 63.734375 71.71875 22.917969 125 22.917969 C 178.28125 22.917969 222.027344 63.734375 226.675781 115.804688 C 226.824219 117.453125 228.1875 118.75 229.839844 118.75 C 231.640625 118.75 233.074219 117.230469 232.917969 115.4375 C 228.078125 60.085938 181.609375 16.667969 125 16.667969 C 68.390625 16.667969 21.921875 60.085938 17.082031 115.4375 C 16.925781 117.230469 18.359375 118.75 20.15625 118.75 Z M 20.15625 118.75 "/>
</g>
</svg>
